images/our-blog-bg.svg

<svg width="1818" height="742" viewBox="0 0 1818 742" fill="none" xmlns="http://www.w3.org/2000/svg">
<path d="M52.8516 123.784C31.2412 126.215 29.3503 128.241 26.9191 149.852C24.4879 128.241 22.462 126.215 0.851562 123.784C22.462 121.353 24.4879 119.462 26.9191 97.8516C29.3503 119.462 31.2412 121.353 52.8516 123.784Z" fill="#EFF8FF"/>
<path d="M39.8973 122.229C42.2944 122.86 45.1734 123.338 48.6448 123.785C45.1728 124.236 42.2932 124.72 39.8955 125.361C36.5948 126.243 34.1627 127.431 32.3379 129.274C30.5134 131.116 29.3428 133.565 28.4741 136.877C27.843 139.283 27.3656 142.169 26.9182 145.643C26.4676 142.168 25.9831 139.282 25.3425 136.875C24.4608 133.562 23.2726 131.114 21.4311 129.272C19.5896 127.431 17.1412 126.242 13.8282 125.361C11.4215 124.72 8.53518 124.236 5.06014 123.785C8.53458 123.338 11.4204 122.86 13.8265 122.229C17.1385 121.36 19.5872 120.19 21.4294 118.365C23.2719 116.54 24.4605 114.108 25.3424 110.808C25.983 108.41 26.4676 105.53 26.9182 102.058C27.3656 105.53 27.8431 108.409 28.4742 110.806C29.343 114.106 30.5141 116.538 32.3396 118.364C34.165 120.189 36.5975 121.36 39.8973 122.229Z" stroke="#1E84B5" stroke-opacity="0.2"/>
<path d="M1685 722.449C1668.79 724.273 1667.37 725.792 1665.55 742C1663.73 725.792 1662.21 724.273 1646 722.449C1662.21 720.626 1663.73 719.208 1665.55 703C1667.37 719.208 1668.79 720.626 1685 722.449Z" fill="#1E84B5"/>
<path d="M1787.5 60.1211C1783.31 60.1211 1779.9 56.712 1779.9 52.5237V7.71854C1779.9 3.53023 1783.31 0.121094 1787.5 0.121094C1791.59 0.121094 1795 3.53023 1795 7.71854V52.5237C1795 56.712 1791.59 60.1211 1787.5 60.1211Z" fill="#1E84B5" fill-opacity="0.1"/>
<path d="M1757.49 30.1209C1757.49 25.9326 1760.9 22.5234 1764.99 22.5234H1809.89C1814.08 22.5234 1817.39 25.9326 1817.39 30.1209C1817.39 34.3092 1814.08 37.7183 1809.89 37.7183H1764.99C1760.9 37.7183 1757.49 34.3092 1757.49 30.1209Z" fill="#1E84B5" fill-opacity="0.1"/>
</svg>

<svg xmlns="http://www.w3.org/2000/svg" width="1818" height="742" fill="none" viewBox="0 0 1818 742"><path fill="#eff8ff" d="M52.852 123.784c-21.61 2.431-23.502 4.457-25.933 26.068-2.431-21.611-4.457-23.637-26.067-26.068 21.61-2.431 23.636-4.322 26.067-25.932 2.431 21.61 4.322 23.501 25.933 25.932"/><path stroke="#1e84b5" stroke-opacity=".2" d="M39.897 122.229c2.397.631 5.276 1.109 8.748 1.556-3.472.451-6.352.935-8.75 1.576-3.3.882-5.732 2.07-7.557 3.913s-2.995 4.291-3.864 7.603c-.631 2.406-1.108 5.292-1.556 8.766-.45-3.475-.935-6.361-1.575-8.768-.882-3.313-2.07-5.761-3.912-7.603-1.841-1.841-4.29-3.03-7.603-3.911-2.406-.641-5.293-1.125-8.768-1.576 3.475-.447 6.36-.925 8.767-1.556 3.312-.869 5.76-2.039 7.602-3.864s3.032-4.257 3.913-7.557c.641-2.398 1.126-5.278 1.576-8.75.448 3.472.925 6.351 1.556 8.748.869 3.3 2.04 5.732 3.866 7.558 1.825 1.825 4.257 2.996 7.557 3.865Z"/><path fill="#1e84b5" d="M1685 722.449c-16.21 1.824-17.63 3.343-19.45 19.551-1.82-16.208-3.34-17.727-19.55-19.551 16.21-1.823 17.73-3.241 19.55-19.449 1.82 16.208 3.24 17.626 19.45 19.449"/><path fill="#1e84b5" fill-opacity=".1" d="M1787.5 60.121c-4.19 0-7.6-3.409-7.6-7.597V7.719c0-4.189 3.41-7.598 7.6-7.598 4.09 0 7.5 3.41 7.5 7.598v44.805c0 4.188-3.41 7.597-7.5 7.597"/><path fill="#1e84b5" fill-opacity=".1" d="M1757.49 30.12c0-4.187 3.41-7.597 7.5-7.597h44.9c4.19 0 7.5 3.41 7.5 7.598s-3.31 7.597-7.5 7.597h-44.9c-4.09 0-7.5-3.409-7.5-7.597"/></svg>
